Obsidian/actions/22s/reply.svg

<svg height="22" viewBox="0 0 22 22" width="22" xmlns="http://www.w3.org/2000/svg"><path d="m7 1.5039062-6.46875 4.5 6.46875 4.4999998v-2.4999998h2c1.3649 0 2.5716.8733501 2.9375 1.9999998.43763 1.3475-1.4375 4-1.4375 4s4-1.5 4-4.7499998c0-3.1235-2-5.25-5-5.25h-2.5z" fill="#bebebe" transform="translate(3 3)"/></svg>

<svg xmlns="http://www.w3.org/2000/svg" width="22" height="22" viewBox="0 0 22 22">
 <defs>
  <style id="current-color-scheme" type="text/css">
   .ColorScheme-Text { color:#bebebe; } .ColorScheme-Highlight { color:#4285f4; }
  </style>
 </defs>
 <path style="fill:currentColor" class="ColorScheme-Text" d="M 7 1.5039062 L 0.53125 6.0039062 L 7 10.503906 L 7 8.0039062 L 9 8.0039062 C 10.3649 8.0039062 11.5716 8.8772563 11.9375 10.003906 C 12.37513 11.351406 10.5 14.003906 10.5 14.003906 C 10.5 14.003906 14.5 12.503906 14.5 9.2539062 C 14.5 6.1304062 12.5 4.0039062 9.5 4.0039062 L 7 4.0039062 L 7 1.5039062 z" transform="translate(3 3)"/>
</svg>
